X: 26447
T: Messing Around
R: jig
M: 6/8
K: Bminor
|:BFB def|ecA ~E3|BFB def|afd ecA|
BFB def|ecA ~E2A|BFB def|1 ecA Bdc:|2 ecA BAF||
|:DEF A2A|BAF ~A3|B2B dBG|~B3 dBG|
DEF AFA|BAF ~A3|B2B dBG|1 AFD EFE:|2 ABd ecA||

